X:3447
T:La Tricotada
O:england
M:3/8
L:1/8
K:C
egf|e2 d/e/|c/d/e/d/e/f/|d/e/d/e/c|egf|\
e2 d|1c/d/e/d/e/f/|g3:|2c/d/ed|c2e/d/||
|:cBc|d2  e/d/|c/d/e/d/e/f/|d/e/ce/d/|\
cBc|d2 e|c/d/ed|1c2e/d/:|2c3||


